!!!COM:	Bach, Johann Sebastian
!!!CDT:	1685/02/21/-1750/07/28/
!!!OTL@@DE:	Nun lob, mein Seel, den Herren
!!!SCT:	BWV 389
!!!PC#:	268
!!!AGN:	chorale
**kern	**kern	**kern	**kern
*ICvox	*ICvox	*ICvox	*ICvox
*Ibass	*Itenor	*Ialto	*Isoprn
*I"Bass	*I"Tenor	*I"Alto	*I"Soprano
*>[A,A,B]	*>[A,A,B]	*>[A,A,B]	*>[A,A,B]
*>norep[A,B]	*>norep[A,B]	*>norep[A,B]	*>norep[A,B]
*>A	*>A	*>A	*>A
*	*oclefC4	*oclefC3	*oclefC1
*clefF4	*clefGv2	*clefG2	*clefG2
*k[]	*k[]	*k[]	*k[]
*C:	*C:	*C:	*C:
*M4/4	*M4/4	*M4/4	*M4/4
*met(c)	*met(c)	*met(c)	*met(c)
*MM100	*MM100	*MM100	*MM100
8cL	4e	4g	4cc
8BJ	.	.	.
=1	=1	=1	=1
4A	4e	4a	4cc
4E	8eL	4g	4b
.	8dJ	.	.
4F	4c	8gL	4a
.	.	8fJ	.
8CL	4c	8eL	4g
8DJ	.	8fJ	.
=2	=2	=2	=2
4E	4.c	4g	4cc
8FL	.	8aL	4dd
8GJ	8B	8gJ	.
4C;	4c;	4g;	4ee;
4C	8cL	4g	[4ee
.	8dJ	.	.
=3	=3	=3	=3
4c	8eL	8gL	8eeL]
.	8fJ	8aJ	8ddJ
4G#	8eL	4b	4ee
.	8dJ	.	.
8AL	4.c	4.a	4ee
8GJ	.	.	.
8FL	.	.	4dd
8GJ	8B	8g	.
=4	=4	=4	=4
8EL	4c	8gL	8ccL
8FJ	.	8aJ	8ddJ
4G	4B	8gL	4dd
.	.	8fJ	.
4C;	4G;	4e;	4cc;
=:|!	=:|!	=:|!	=:|!
*>B	*>B	*>B	*>B
4C	4G	4e	4cc
=5	=5	=5	=5
4F	4A	4f	8ccL
.	.	.	8ddJ
8EL	8GL	4cc	4ee
8FJ	8AJ	.	.
4G	4B	8gL	4dd
.	.	8fJ	.
4G#	4B	4e	4ee
=6	=6	=6	=6
4A	8B	2e	4cc
.	4A	.	.
4E	.	.	4b
.	8G#	.	.
4AA;	4c;	4e;	4a;
8AL	8cL	4e	4a
8GJ	8BJ	.	.
=7	=7	=7	=7
4F#	4A	4d	8ddL
.	.	.	8ccJ
8GL	4G	4d	4b
8F#J	.	.	.
8EL	4G	8gL	8ccL
8CJ	.	8eJ	8bJ
4D	8dL	4f#	4a
.	8cJ	.	.
=8	=8	=8	=8
4GG;	4B;	4d;	4g;
8GL	8BL	4d	4g
8FnXJ	8AJ	.	.
4E	4G	8gL	4cc
.	.	8fnXJ	.
8AL	4c	4e	4cc
8GJ	.	.	.
=9	=9	=9	=9
8FL	4c	8aL	4dd
8DJ	.	8fJ	.
4G	4B	4g	4dd
4.C	4c	8gL	8eeL
.	.	8fJ	8ddJ
.	4B-	4g	4ee
16DLL	.	.	.
16EJJ	.	.	.
=10	=10	=10	=10
4F;	4A;	4f;	4cc;
4E	4c	4g	4cc
4D	8dL	8fL	4ff
.	8eJ	8gJ	.
4d	4f	4a	4ff
=11	=11	=11	=11
8GL	4g	4b-	8eeL
8B-J	.	.	8ddJ
4A	4c#	4e	4ee
4D;	4A;	4f;	4dd;
4G	4B	4g	4dd
=12	=12	=12	=12
8cnXL	4cnX	4g	4ee
8BJ	.	.	.
8AL	4c	4a	4ee
8GJ	.	.	.
8FL	4d	4a	4ff
8EJ	.	.	.
4D	4d	4b-	4ff
=13	=13	=13	=13
4C	8eL	4b-	8ggL
.	8d	.	16ffL
.	.	.	16eeJJ
8DL	8c	8aL	8ffL
8EJ	8B-J	8gJ	8ggJ
4F;	4A;	4f;	4cc;
4C	8cL	4g	4ee
.	8BJ	.	.
=14	=14	=14	=14
4F#	4A	4a	8ddL
.	.	.	8ccJ
4G	4d	4g	4b
8EL	4G	8gL	8ccL
8CJ	.	8eJ	8bJ
4D	8dL	4f#	4a
.	8cJ	.	.
=15	=15	=15	=15
4GG;	4B;	4d;	4g;
4GG	4B	4d	4g
4AA	8EL	4a	4cc
.	8F#J	.	.
8BBL	4G	8dL	4b
8CJ	.	8eJ	.
=16	=16	=16	=16
4D	4d	4fnX	4a
4E	8dL	4g	4g
.	8cJ	.	.
4F	8cL	4.a	4dd
.	8BJ	.	.
4F#	4c	.	4ee
.	.	16bLL	.
.	.	16ccJJ	.
=17	=17	=17	=17
4G;	4B;	4g;	4dd;
4G#	8eL	4b	4ee
.	8dJ	.	.
8AL	8cL	4a	4ff
8BJ	8dJ	.	.
4c	8eL	8gnXL	4ee
.	8fnXJ	8aJ	.
=18	=18	=18	=18
8FL	8gL	4b	4dd
8GJ	8fJ	.	.
4A	8eL	2cc	8ccL
.	8fJ	.	8ddJ
8GL	4.g	.	4ee
8FJ	.	.	.
4G	.	4b	4dd
.	8f	.	.
=19	=19	=19	=19
2.C;	2.e;	2.g;	2.cc;
==	==	==	==
*-	*-	*-	*-
!!!YOR1: 371 vierstimmige Choralges&auml;nge von Johann Sebastian Bach, 
!!!YOR2: 4th ed. by Alfred D&ouml;rffel (Leipzig: Breitkopf und H&auml;rtel, 
!!!YOR2: c.1875). 178 pp. Plate "V.A.10".  reprint: J.S. Bach, 371 Four-Part 
!!!YOR4: Chorales (New York: Associated Music Publishers, Inc., c.1940).
!!!SMS: B&H, 4th ed, Alfred D&ouml;rffel, c.1875, plate V.A.10
!!!EED:  Craig Stuart Sapp
!!!EEV:  2009/05/22
